X:1
T:RIALTO RIPPLES
T:RIALTO RIPPLES
T:RAG
T:GEORGE GERSHWIN and WILL DONALDSON 
T:Copyright 1917 by JEROME H. REMICK &amp; CO.
T:Copyright 1917 by JEROME H. REMICK &amp; CO.
C:GEORGE GERSHWIN
Z:Copyright 1917 by JEROME H. REMICK & CO.
%%score { ( 1 3 ) | ( 2 4 ) }
L:1/8
Q:1/4=180
M:2/2
K:C
V:1 treble nm="Piano" snm="Pno."
V:3 treble 
V:2 treble 
V:4 treble 
V:1
"^Marcato"!mf! (3c'd'c' a^a b e'3 | (3cdc A^A B e3 | [^D=Ac]2 [DAc]4 [DAB]2 | e8 || %4
!f! (3cdc A^A B !>![EBe]2 d | (3cdc A^A B !>![EBe]2 d | (3cdc A^A B !>![EBe]2 d | %7
 .[^C=GA] z [^c_b]2 (!>!b2 a2) | (3fgf d^d e !>![Aea]2 g | (3fgf d^d e !>![Aea]2 g | %10
 (3fgf d^d e !>![Aea]2 g | [FAd]4- [FAd]^c[Fd]e | [^Gdf]2 [Gdf]2 [Gdf] [Gde]2 [d^gb]- | %13
 [dgb]4- [dgb]^cde | [A=cf]2 [Acf]2 [Acf] [Ace]2 [Aca]- | [Aca]4- [Aca]^de^f | %16
 [=A^dg]2 [Adg]2 [Adg] [Ad^f]2 [Bdfb]- | [Bdfb]2 [Bb][^A^a] [Bb][=c=c'][Bb][=A=a] | %18
 [^G^g]2 [Ee]2 !>![Ee]3[K:bass] (3C,/D,/^D,/ | .E,.=F,.E,.=D, .C,2 .B,,2 | %20
[K:treble]!f! (3cdc A^A B !>![EBe]2 d | (3cdc A^A B !>![EBe]2 d | (3cdc A^A B !>![EBe]2 d | %23
 .[^C=GA] z [^c_b]2 (!>!b2 a2) | (3fgf d^d e !>![Aea]2 g | (3fgf d^d e !>![Aea]2 g | %26
 (3fgf d^d e !>![Aea]2 g | [FAd]4- [FAd]^c[Fd]e | [^Gdf]2 [Gdf]2 [Gdf] [Gde]2 [d^gb]- | %29
 [dgb]4- [dgb]=g^ga | [^c=g_b]2 [cgb]2 [cgb] [cga]2 [eg^c'e']- | %31
 [egc'e']4- [egc'e'][ee'][^d^d'][ee'] | [faf'] [ege']2 [=df=d']- [dfd'][^c^c'][dd'][^d^d'] | %33
 [ec'e'] [=db=d']2 [cac']- [cac'][^G^g][Aa][Bb] | [c^fac']2 [cfac']2 [c^gc'] [Bgb]3 | %35
 [Aea]2 !>![Aa]2 !>![_B_b]2 !>![=B=b]2 ||[K:F]!mf! [ac'] c2 [^g=b]- [gb]=B [gb]2 | %37
 [=g_b] _B2 [fa]- [fa]A [fa]2 | g^cd^d e [=ca]2 [_Bg] | [Af]4- [Af][Gg][Aa][Bb] | %40
 [fa] c2 [=bd']- [bd']d [bd']2 | [e_bd']4- [ebd']abc' | [bd'] d2 [^gd'e']- [gd'e']e [gd'e']2 | %43
 [e-a^c'e'-]4 [e_b=c'e'][cc'][dd'][ee'] | [ac'f'] f2 [bc'e']- [bc'e']e [bc'e']2 | %45
 [ac'_e'] _e2 [fbd']- [fbd']d [fbd']2 | [ac']def ^f [bd']2 [ac'] | [gb]4- [gb]^cd=f | %48
!<(!{/=b} !>![dfa]2 [dfg]2{/b} !>![dfa]2 [dfg]2!<)! | %49
{/e'} !>![fad']2 [fac']2{/e'} !>![^fad']2 [fac']2 | z ^cd=f age=c | [Acf]4 (!>!c2 =B2) || %52
[K:C]S!f! (3cdc A^A B !>![EBe]2 d | (3cdc A^A B !>![EBe]2 d | (3cdc A^A B !>![EBe]2 d | %55
 .[^C=GA] z [^c_b]2 (!>!b2 a2) | (3fgf d^d e !>![Aea]2 g | (3fgf d^d e !>![Aea]2 g | %58
 (3fgf d^d e !>![Aea]2 g | [FAd]4- [FAd]^c[Fd]e | [^Gdf]2 [Gdf]2 [Gdf] [Gde]2 [d^gb]- | %61
 [dgb]4- [dgb]=g^ga | [^c=g_b]2 [cgb]2 [cgb] [cga]2 [eg^c'e']- | %63
 [egc'e']4- [egc'e'][ee'][^d^d'][ee'] | [faf'] [ege']2 [=df=d']- [dfd'][^c^c'][dd'][^d^d'] | %65
 [ec'e'] [=db=d']2 [cac']- [cac'][^G^g][Aa][Bb] | [c^fac']2 [cfac']2 [c^gc'] [Bgb]3 | %67
 [Acea]2 z2!8va(! !^![ac'e'a']2!8va)! z2!fine! ||[K:F][M:2/2]!mf! [fg]2 [fa]2 (b d'3) | %69
 [FG]2 [FA]2 (B d3) |!ff!{Ad} [FA]2 !>![FA]4 F2 | (([FG]4 !>![Ec]2)) z2 || %72
!mf! [Bd]^FGA B [ce]2 [Bd] | z2 ([gc'd']^g a) [c'd']2 z | [Bd]^FGA B [ce]2 [Bd] | %75
 z2 ([gc'd']^g a) [c'd']2 z | [eg]^cd^d e [fa]2 [eg] | [df]4- [df]^cdf | %78
!<(!{/=b} !>![dfa]2 [dfg]2{/b} !>![dfa]2 [dfg]2!<)! | %79
!ff!{/e'} !>![fad']2 [fac']2{/=e'} !>![_ead']2 [eac']2 |!mf! [Bd]^FGA B [ce]2 [Bd] | %81
 z2 ([gc'd']^g a) [c'd']2 z | [A_eg]>f[Aeg]>f [Aeg] [Aef]2 [Bd]- | [Bd]6 z2 | z B=Bc _d g2 ^f | %85
 g=f_dc B4 | z FG^G A e2 d | edcA ^F3 A | [Bd]^FGA B [ce]2 A | [Bd]^FGA B [ce]2 A | %90
 [Bd]A[Bd]A [Ad] [^Gc]2 [Af]- | [Af]4 (!>!c2 =B2)!D.S.! |] %92
V:2
 [Ace]4 [^Gde]4 |[K:bass] [A,CE]4 [^G,DE]4 | ^F,2 F,4 =F,2 | (E,4 !>!E,,4) || (E,2 ^F,2 G,2 ^G,2) | %5
 (E,2 ^F,2 =G,2 ^G,2) | (E,2 ^F,2 =G,2 ^G,2) | [A,,A,] z[K:treble] [A,EG]2 [A,EG]4 | %8
[K:bass] (A,2 B,2 C2 ^C2) | (A,2 B,2 =C2 ^C2) | (A,2 B,2 =C2 ^C2) | %11
 [D,D]2{/^G,} [D,A,]2{/G,} [D,A,]2{/G,} [D,A,]2 | !arpeggio![E,,B,,^G,]2 [E,G,D]2 B,,2 [E,G,D]2 | %13
 [E,,E,]2 [E,,E,]2 [^F,,^F,]2 [^G,,^G,]2 | [A,,A,]2 [E,A,C]2 [E,,E,]2 [E,A,C]2 | %15
 [A,,A,]2 [^G,,^G,]2 [A,,A,]2 [^A,,^A,]2 | [B,,B,]2 [A,B,^D]2 [B,,,B,,]2 [A,B,D]2 | %17
 [^F,,^F,]2 B,^A, B,CB,=A, | ^G,2 E,2 !>!E,3 (3C,,/D,,/^D,,/ | .E,,.=F,,.E,,.=D,, .C,,2 .B,,,2 | %20
 (E,2 ^F,2 G,2 ^G,2) | (E,2 ^F,2 =G,2 ^G,2) | (E,2 ^F,2 =G,2 ^G,2) | %23
 [A,,A,] z[K:treble] [A,EG]2 [A,EG]4 |[K:bass] (A,2 B,2 C2 ^C2) | (A,2 B,2 =C2 ^C2) | %26
 (A,2 B,2 =C2 ^C2) | [D,D]2{/^G,} [D,A,]2{/G,} [D,A,]2{/G,} [D,A,]2 | %28
 !arpeggio![E,,B,,^G,]2 [E,G,D]2 B,,2 [E,G,D]2 | [E,,E,]2 [E,E]2 [^D,^D]2 [=D,=D]2 | %30
 !arpeggio![A,,E,^C]2 [A,CG]2 [E,,E,]2 [A,CG]2 | [A,,A,]2 [A,^CG]2 [G,,G,]2 [A,CG]2 | %32
 !>![D,,D,]2 !>![E,,E,]2 !>![F,,F,]2 !>![G,,G,]2 | !>![A,,A,]2 !>![B,,B,]2 !>![C,C]2 !>![D,D]2 | %34
 [^D,^D]2 [D,D]2 [E,E]2 [E,=D]2 | !arpeggio![A,,E,C]2 !>!A,2 !>!_B,2 !>!=B,2 || %36
[K:F] !>![F,,C,]2 [A,CF]2 [F,,D,]2 [^G,=B,F]2 | !>![F,,E,]2 [_B,CE]2 !>![F,,F,]2 [A,CG]2 | %38
 !arpeggio![G,,D,=B,]2 [G,B,F]2 [C,,C,]2 [_B,CE]2 | [F,,F,]2 [A,CF]2 [C,,C,]2 [A,CF]2 | %40
 [F,,F,]2 [A,CF]2 [_A,,_A,]2 [_A,=B,F]2 | [G,,G,]2 [_B,CE]2 [C,,C,]2 [B,CE]2 | %42
 [G,,G,]2 [B,CE]2 [E,,E,]2 [=B,DE]2 | !arpeggio![A,,E,^C]2 [A,CE]2 [G,,G,]2 [_B,=CE]2 | %44
 [F,,F,]2 [A,CF]2 [G,,G,]2 [B,CE]2 | [A,,A,]2 [C_EF]2 [B,,B,]2 [B,DF]2 | %46
 [A,,A,]2 [CD^F]2 [D,,D,]2 [CDF]2 | [G,,G,]2 [B,DG]2 [D,,D,]2 [B,DG]2 | %48
[K:treble] !>![=B,FA]2 [B,FG]2 !>![B,FA]2 [B,FG]2 | !>![CFA]2 [CFA]2 !>![C^FA]2 [CFA]2 | %50
[K:bass] [D,,D,]2 [G,=B,=F]2 [E,,E,]2 [_B,CE]2 | [F,,F,]2 [^D,,^D,]2 [E,,E,]4 || %52
[K:C] (E,2 ^F,2 G,2 ^G,2) | (E,2 ^F,2 =G,2 ^G,2) | (E,2 ^F,2 =G,2 ^G,2) | %55
 [A,,A,] z [A,EG]2 [A,EG]4 | (A,2 B,2 C2 ^C2) | (A,2 B,2 =C2 ^C2) | (A,2 B,2 =C2 ^C2) | %59
 [D,D]2{/^G,} [D,A,]2{/G,} [D,A,]2{/G,} [D,A,]2 | !arpeggio![E,,B,,^G,]2 [E,G,D]2 B,,2 [E,G,D]2 | %61
 [E,,E,]2 [E,E]2 [^D,^D]2 [=D,=D]2 | !arpeggio![A,,E,^C]2 [A,CG]2 [E,,E,]2 [A,CG]2 | %63
 [A,,A,]2 [A,^CG]2 [G,,G,]2 [A,CG]2 | !>![D,,D,]2 !>![E,,E,]2 !>![F,,F,]2 !>![G,,G,]2 | %65
 !>![A,,A,]2 !>![B,,B,]2 !>![C,C]2 !>![D,D]2 | [^D,^D]2 [D,D]2 [E,E]2 [E,=D]2 | %67
 !arpeggio![A,,E,C]2 z2 !^![A,,,A,,]2"^Fine." z2 ||[K:F][M:2/2][K:treble] !courtesy!_B2 c2 d4 | %69
 !courtesy!_B,2 C2 D4 |[K:bass] [=B,D]2 !>![B,D]4 [B,D]2 | (([_B,C]4 !>![C,B,]2)) z2 || %72
 [G,,G,]2 [B,CE]2 [C,,C,]2 [B,CE]2 | [F,,F,]2 [A,CF]2 [^F,,^F,]2 [F,A,_E]2 | %74
 [G,,G,]2 [B,C=E]2 [C,,C,]2 [B,CE]2 | [F,,F,]2 [A,,A,]2 [=B,,=B,]2 [C,C]2 | %76
 [^C,^C]2 [A,CG]2 [A,,A,]2 [A,CG]2 | [D,,D,]2 [A,DF]2 A,,2 [A,DF]2 | %78
[K:treble] !>![=B,FA]2 [B,FG]2 !>![B,FA]2 [B,FG]2 | !>![CFA]2 [CFA]2 !>![C^FA]2 [CFA]2 | %80
[K:bass] [G,,G,]2 [B,CE]2 [C,,C,]2 [B,CE]2 | [F,,F,]2 [A,CF]2 [C,,C,]2 [A,CF]2 | %82
 [F,,F,]2 [F,A,_E]2 [C,,C,]2 [F,A,E]2 | [B,,F,]2 (F,2 B,2 C2) | !>![F,G,B,_D]8- | %85
 [F,G,B,D]6 [F,G,B,_D]2 | [F,A,C]4 [E,G,A,C]4 | [D,^F,A,C]6 [D,F,A,C]2 | %88
 [G,,G,]2 [B,CE]2 [C,,C,]2 [B,CE]2 | [G,,G,]2 [B,CE]2 [C,,C,]2 [B,CE]2 | %90
 [G,,G,]2 [B,CE]2 [C,,C,]2 [B,CE]2 |"^D. S. al Fine" [F,,F,]2 [^D,,^D,]2 !>![E,,E,]4 |] %92
V:3
 x8 | x8 | x8 | (([=DA]4 [D^G]4)) || x8 | x8 | x8 | x4 ^c4 | x8 | x8 | x8 | x8 | x8 | x8 | x8 | %15
 x8 | x8 | x8 | x7[K:bass] x | x8 |[K:treble] x8 | x8 | x8 | x4 ^c4 | x8 | x8 | x8 | x8 | x8 | x8 | %30
 x8 | x8 | x8 | x8 | x8 | x8 ||[K:F] x8 | x8 | x8 | x8 | x8 | x8 | x8 | x8 | x8 | x8 | x8 | x8 | %48
 x8 | x8 | x8 | x4 !>![=D^G]4 ||[K:C] x8 | x8 | x8 | x4 ^c4 | x8 | x8 | x8 | x8 | x8 | x8 | x8 | %63
 x8 | x8 | x8 | x8 | x4!8va(! x2!8va)! x2 ||[K:F][M:2/2] x4 [fb]4 | x4 [FB]4 | x8 | x8 || x8 | %73
 [Ac]4- [Ac]3 A | x8 | [Ac]8 | x8 | x8 | x8 | x8 | x8 | [Ac]4- [Ac]3 A | x8 | x8 | x8 | x8 | x8 | %87
 x8 | x8 | x8 | x8 | x4 !>![=D^G]4 |] %92
V:4
 x8 |[K:bass] x8 | x8 | x8 || A,,8 | A,,8 | A,,8 | x2[K:treble] x6 |[K:bass] D,8 | D,8 | D,8 | x8 | %12
 x8 | x8 | x8 | x8 | x8 | x8 | x8 | x8 | A,,8 | A,,8 | A,,8 | x2[K:treble] x6 |[K:bass] D,8 | D,8 | %26
 D,8 | x8 | x8 | x8 | x8 | x8 | x8 | x8 | x8 | x8 ||[K:F] x8 | x8 | x8 | x8 | x8 | x8 | x8 | x8 | %44
 x8 | x8 | x8 | x8 |[K:treble] x8 | x8 |[K:bass] x8 | x8 ||[K:C] A,,8 | A,,8 | A,,8 | x8 | D,8 | %57
 D,8 | D,8 | x8 | x8 | x8 | x8 | x8 | x8 | x8 | x8 | x8 ||[K:F][M:2/2][K:treble] x8 | x8 | %70
[K:bass] x8 | x8 || x8 | x8 | x8 | x8 | x8 | x8 |[K:treble] x8 | x8 |[K:bass] x8 | x8 | x8 | x8 | %84
 x8 | x8 | x8 | x8 | x8 | x8 | x8 | x8 |] %92

